src/images/app-icons/dark-theme/SecurityAccessRequest.svg

<svg xmlns="http://www.w3.org/2000/svg" viewBox="0 0 32 32"><defs><linearGradient id="SecurityAccessRequest_svg__a" x1="6" y1="25.5" x2="27" y2="25.5" gradientUnits="userSpaceOnUse"><stop offset=".1" stop-opacity="0"/><stop offset=".75"/></linearGradient><linearGradient id="SecurityAccessRequest_svg__c" y1="32" x2="32" gradientUnits="userSpaceOnUse"><stop offset=".2" stop-color="#8a3ffc"/><stop offset=".8" stop-color="#30b0ff"/></linearGradient><mask id="SecurityAccessRequest_svg__b" x="0" y="0" width="32" height="32" maskUnits="userSpaceOnUse"><path d="M15 29a9.011 9.011 0 01-9-9V7.618l9-4.5 11 5.5V6.382l-11-5.5-11 5.5V20a11 11 0 0022 0h-2a9.011 9.011 0 01-9 9z" fill="#fff"/><path fill="url(#SecurityAccessRequest_svg__a)" d="M6 19h21v13H6z"/></mask></defs><g data-name="Layer 2"><g data-name="Dark theme icons"><g mask="url(#SecurityAccessRequest_svg__b)"><path fill="url(#SecurityAccessRequest_svg__c)" d="M0 0h32v32H0z"/></g><path d="M23 21h-6a3 3 0 00-3 3v2h2v-2a1 1 0 011-1h6a1 1 0 011 1v2h2v-2a3 3 0 00-3-3zM20 20a4 4 0 10-4-4 4 4 0 004 4zm0-6a2 2 0 11-2 2 2 2 0 012-2z" fill="#f4f4f4"/></g></g></svg>

<svg xmlns="http://www.w3.org/2000/svg" xmlns:xlink="http://www.w3.org/1999/xlink" viewBox="0 0 32 32">
  <defs>
    <linearGradient id="ebc804a3-71b3-431e-8950-4975f1c7aaa2" x1="6" y1="25.5" x2="27" y2="25.5" gradientUnits="userSpaceOnUse">
      <stop offset="0.1" stop-opacity="0"/>
      <stop offset="0.75"/>
    </linearGradient>
    <mask id="ab6cb628-45d8-4b9b-b676-2ede24e47d47" x="0" y="0" width="32" height="32" maskUnits="userSpaceOnUse">
      <g>
        <path d="M15,29a9.011,9.011,0,0,1-9-9V7.618l9-4.5,11,5.5V6.382L15,.882,4,6.382V20a11,11,0,0,0,22,0H24A9.011,9.011,0,0,1,15,29Z" fill="#fff"/>
        <rect x="6" y="19" width="21" height="13" fill="url(#ebc804a3-71b3-431e-8950-4975f1c7aaa2)"/>
      </g>
    </mask>
    <linearGradient id="a836e9e1-6d5e-4d73-a2f9-a66405917ca7" y1="32" x2="32" gradientUnits="userSpaceOnUse">
      <stop offset="0.2" stop-color="#8a3ffc"/>
      <stop offset="0.8" stop-color="#30b0ff"/>
    </linearGradient>
  </defs>
  <g id="ab1ca180-cbaf-4c1c-96a4-810b8a5c1266" data-name="Layer 2">
    <g id="bd40be1d-9d18-4e89-956c-d80871ccb04e" data-name="Dark theme icons">
      <g>
        <g mask="url(#ab6cb628-45d8-4b9b-b676-2ede24e47d47)">
          <rect width="32" height="32" fill="url(#a836e9e1-6d5e-4d73-a2f9-a66405917ca7)"/>
        </g>
        <g>
          <path d="M23,21H17a3,3,0,0,0-3,3v2h2V24a1,1,0,0,1,1-1h6a1,1,0,0,1,1,1v2h2V24A3,3,0,0,0,23,21Z" fill="#f4f4f4"/>
          <path d="M20,20a4,4,0,1,0-4-4A4,4,0,0,0,20,20Zm0-6a2,2,0,1,1-2,2A2,2,0,0,1,20,14Z" fill="#f4f4f4"/>
        </g>
      </g>
    </g>
  </g>
</svg>
